X: 1825
T: Ardgroom, The
R: polka
M: 2/4
K: Gmajor
D|:G2 GB/A/|GB dd/B/|de dG|BA AB/A/|
G2 GB/A/|GB dd/B/|de dB|1 AG GD:|2 AG G>B||
|:dg g/f/g/f/|ed d>B|d>e dG|BA A>B|
dg g/f/g/f/|ed d>B|d>e dB|1 AG G>A:|2 AG GD||

